z_dist/img/icons/crypto/kadena-KDA.svg

<svg width="64" height="64" viewBox="0 0 64 64" fill="none" xmlns="http://www.w3.org/2000/svg">
<g clip-path="url(#clip0_580_24995)">
<rect y="0.000244141" width="64" height="64" rx="4" fill="white"/>
<path d="M32.7129 27.6233L33.57 28.7361C33.57 28.7361 38.7279 36.312 41.3114 40.0939C43.0933 42.718 44.8753 45.342 46.6602 47.9646C46.7971 48.1526 46.9234 48.348 47.0377 48.5495C43.8618 48.5631 40.6858 48.5556 37.5114 48.5526C34.3505 43.8608 28.0753 34.4458 28.0753 34.4458L27.5339 33.4594" fill="url(#paint0_linear_580_24995)"/>
<path d="M25.2943 37.3288C25.177 37.422 25.1861 37.5769 25.1861 37.7122L25.0582 38.1393L24.4402 28.2039L25.1966 27.3949C25.3906 27.2626 32.9018 19.3227 36.5169 15.5422C36.6026 15.4219 36.7575 15.458 36.8838 15.4475C40.0297 15.458 46.3199 15.455 46.3199 15.455C46.3199 15.455 26.2101 36.3573 25.2943 37.3288Z" fill="url(#paint1_linear_580_24995)"/>
<path d="M16.9636 15.4561H25.1952V48.5402H16.9636V15.4561Z" fill="#69009A"/>
</g>
<defs>
<linearGradient id="paint0_linear_580_24995" x1="30.3675" y1="31.2346" x2="37.9959" y2="42.1618" gradientUnits="userSpaceOnUse">
<stop stop-color="#EA078C"/>
<stop offset="1" stop-color="#69009A"/>
</linearGradient>
<linearGradient id="paint1_linear_580_24995" x1="23.8004" y1="31.1263" x2="39.3152" y2="21.5907" gradientUnits="userSpaceOnUse">
<stop stop-color="#EA078C"/>
<stop offset="1" stop-color="#69009A"/>
</linearGradient>
<clipPath id="clip0_580_24995">
<rect width="64" height="64" fill="white" transform="translate(0 0.000244141)"/>
</clipPath>
</defs>
</svg>

<svg width="64" height="64" fill="none" xmlns="http://www.w3.org/2000/svg"><g clip-path="url(#clip0_580_24995)"><rect width="64" height="64" rx="4" fill="#fff"/><path d="M32.713 27.623l.857 1.113s5.158 7.576 7.741 11.358c1.782 2.624 3.564 5.248 5.35 7.87.136.189.262.384.377.586-3.176.013-6.352.006-9.527.003-3.16-4.692-9.436-14.107-9.436-14.107l-.541-.987" fill="url(#paint0_linear_580_24995)"/><path d="M25.294 37.329c-.117.093-.108.248-.108.383l-.128.427-.618-9.935.757-.81c.194-.131 7.705-8.071 11.32-11.852.086-.12.24-.084.367-.095 3.146.011 9.436.008 9.436.008S26.21 36.357 25.294 37.329z" fill="url(#paint1_linear_580_24995)"/><path d="M16.964 15.456h8.231V48.54h-8.231V15.456z" fill="#69009A"/></g><defs><linearGradient id="paint0_linear_580_24995" x1="30.367" y1="31.235" x2="37.996" y2="42.162" gradientUnits="userSpaceOnUse"><stop stop-color="#EA078C"/><stop offset="1" stop-color="#69009A"/></linearGradient><linearGradient id="paint1_linear_580_24995" x1="23.8" y1="31.126" x2="39.315" y2="21.591" gradientUnits="userSpaceOnUse"><stop stop-color="#EA078C"/><stop offset="1" stop-color="#69009A"/></linearGradient><clipPath id="clip0_580_24995"><path fill="#fff" d="M0 0h64v64H0z"/></clipPath></defs></svg>
